lib/healthicons/icons/outline/specialties/nephrology.svg

<svg fill="none" height="48" viewBox="0 0 48 48" width="48" xmlns="http://www.w3.org/2000/svg"><g fill="#333"><path clip-rule="evenodd" d="m39 8h-30c-.55229 0-1 .44772-1 1v30c0 .5523.44772 1 1 1h30c.5523 0 1-.4477 1-1v-30c0-.55229-.4477-1-1-1zm-30-2c-1.65685 0-3 1.34315-3 3v30c0 1.6569 1.34315 3 3 3h30c1.6569 0 3-1.3431 3-3v-30c0-1.65685-1.3431-3-3-3z" fill-rule="evenodd"/><path d="m15.5462 31.3156c-7.90137-3.7772-5.026-15.9507.3783-17.866 2.2418-.7945 4.7816 2.0359 4.7964 3.7629.0147 1.7269-1.8154 3.3183-1.3988 5.4614.4165 2.143.9047 5.7549-.1576 7.4441-1.0623 1.6893-2.1572 1.8961-3.6183 1.1976z"/><path clip-rule="evenodd" d="m20.4701 25.9996s.0015 0 .0298-.9996c.0284-.9996.0299-.9996.0299-.9996l.0016.0001.0032.0001.0069.0003.0158.0007c.0114.0006.0243.0014.0389.0026.029.0023.0644.0059.1054.0116.0815.0112.1867.0308.3078.0652.2416.0686.5565.1992.8691.4478.6651.529 1.1335 1.4371 1.1335 2.8337v14.6375h-2v-14.6375c0-.923-.2876-1.1962-.3785-1.2685-.0655-.0521-.1286-.0772-.1705-.0891-.0207-.0059-.0347-.0079-.0347-.0079s.0025.0004.0094.0009l.0135.0009.0093.0004.0053.0002.0029.0001z" fill-rule="evenodd"/><path d="m32.6496 31.3156c7.9014-3.7772 5.026-15.9507-.3783-17.866-2.2418-.7945-4.7816 2.0359-4.7964 3.7629-.0147 1.7269 1.8154 3.3183 1.3988 5.4614-.4165 2.143-.9047 5.7549.1576 7.4441 1.0623 1.6893 2.1572 1.8961 3.6183 1.1976z"/><path clip-rule="evenodd" d="m27.7256 25.9996s-.0014 0-.0298-.9996-.0299-.9996-.0299-.9996l-.0015.0001-.0033.0001-.0069.0003-.0158.0007c-.0113.0006-.0243.0014-.0388.0026-.0291.0023-.0645.0059-.1054.0116-.0816.0112-.1868.0308-.3079.0652-.2416.0686-.5565.1992-.869.4478-.6651.529-1.1335 1.4371-1.1335 2.8337v14.6375h2v-14.6375c0-.923.2876-1.1962.3785-1.2685.0655-.0521.1286-.0772.1705-.0891.0206-.0059.0347-.0079.0347-.0079s-.0025.0004-.0094.0009l-.0136.0009-.0093.0004-.0053.0002-.0028.0001z" fill-rule="evenodd"/></g></svg>

<svg width="48" height="48" viewBox="0 0 48 48" fill="none" xmlns="http://www.w3.org/2000/svg">
<path d="M15.5462 31.3156C7.64483 27.5384 10.5202 15.3649 15.9245 13.4496C18.1663 12.6551 20.7061 15.4855 20.7209 17.2125C20.7272 17.9592 20.3887 18.6805 20.0361 19.432C19.573 20.4187 19.0856 21.4574 19.3221 22.6739C19.7386 24.8169 20.2268 28.4288 19.1645 30.118C18.1022 31.8073 17.0073 32.0141 15.5462 31.3156Z" fill="#333333"/>
<path d="M32.6496 31.3156C40.551 27.5384 37.6756 15.3649 32.2713 13.4496C30.0295 12.6551 27.4897 15.4855 27.4749 17.2125C27.4686 17.9592 27.8071 18.6805 28.1597 19.432C28.6228 20.4187 29.1102 21.4574 28.8737 22.6739C28.4572 24.8169 27.969 28.4288 29.0313 30.118C30.0936 31.8073 31.1885 32.0141 32.6496 31.3156Z" fill="#333333"/>
<path fill-rule="evenodd" clip-rule="evenodd" d="M6 39C6 40.6569 7.34315 42 9 42H39C40.6569 42 42 40.6569 42 39V9C42 7.34315 40.6569 6 39 6H9C7.34315 6 6 7.34315 6 9V39ZM40 9C40 8.44771 39.5523 8 39 8H9C8.44771 8 8 8.44772 8 9V39C8 39.5523 8.44772 40 9 40H21.012V27.3625C21.012 26.4395 20.7244 26.1663 20.6335 26.094C20.568 26.0419 20.5049 26.0168 20.463 26.0049C20.4423 25.999 20.4283 25.997 20.4283 25.997C20.4283 25.997 20.4308 25.9974 20.4377 25.9979L20.4512 25.9988L20.4605 25.9992L20.4658 25.9994L20.4701 25.9996C20.4701 25.9996 20.4716 25.9996 20.4999 25C20.5283 24.0004 20.5298 24.0004 20.5298 24.0004L20.5314 24.0005L20.5346 24.0006L20.5415 24.0009L20.5573 24.0016C20.5687 24.0022 20.5816 24.003 20.5962 24.0042C20.6252 24.0065 20.6606 24.0101 20.7016 24.0158C20.7831 24.027 20.8883 24.0466 21.0094 24.081C21.251 24.1496 21.5659 24.2802 21.8785 24.5288C22.5436 25.0578 23.012 25.9659 23.012 27.3625V40H25.1838V27.3625C25.1838 25.9659 25.6522 25.0578 26.3173 24.5288C26.6298 24.2802 26.9447 24.1496 27.1863 24.081C27.3074 24.0466 27.4126 24.027 27.4942 24.0158C27.5351 24.0101 27.5705 24.0065 27.5996 24.0042C27.6141 24.003 27.6271 24.0022 27.6384 24.0016L27.6542 24.0009L27.6611 24.0006L27.6644 24.0005L27.6659 24.0004C27.6659 24.0004 27.6674 24.0004 27.6958 25C27.7242 25.9996 27.7256 25.9996 27.7256 25.9996L27.7299 25.9994L27.7352 25.9992L27.7445 25.9988L27.7581 25.9979C27.765 25.9974 27.7675 25.997 27.7675 25.997C27.7675 25.997 27.7534 25.999 27.7328 26.0049C27.6909 26.0168 27.6278 26.0419 27.5623 26.094C27.4714 26.1663 27.1838 26.4395 27.1838 27.3625V40H39C39.5523 40 40 39.5523 40 39V9Z" fill="#333333"/>
</svg>
